X: 2
T: Missa Alleluia / Gloria
N: Derived from Rue1001b-Missa_Alleluia-Gloria.krn
C: Pierre de la Rue
%%abc-version 2.0
%%abcx-abcm2ps-target-version 5.9.1 (29 Sep 2008)
%%abc-creator hum2abc beta
%%abcx-conversion-date 2019/02/17 08:01:09
%%abc-edited-by Jesse Rodin
%%abc-edited-by Megan K. Eagen 1/11/2012
%%abcx-initial-encoding-date 2013/08/09/
%%humdrum-veritas 3757388968
%%humdrum-veritas-data 583192536
%%linebreak <none>
%%barnumbers 0
L: 1/4
M: 3/1
Q: 1/2=120
V: 1 clef=treble
V: 2 clef=treble-8
V: 3 clef=treble-8
V: 4 clef=bass
V: 5 clef=bass
K: F
[V:1] F6G2A4 | 
[V:2] z4z4F4 | 
[V:3] z12 :
[V:4] z12 | 
[V:5] z12 | 
[V:1] D6E2F4 | 
[V:2] B4B4A4 | 
[V:3] x12 | 
[V:4] z12 | 
[V:5] z12 | 
[V:1] B,2B2B2B2A2B2- | 
[V:2] G8z2d2 | 
[V:3] z12 :
[V:4] z12 | 
[V:5] z12 | 
[V:1] B2AGA2G3FE2 | 
[V:2] d2d2c3BG2A2 | 
[V:3] x12 | 
[V:4] z12 | 
[V:5] z12 | 
[V:1] D2E2F2G2z2D2 | 
[V:2] B2c4G2A2B2 | 
[V:3] z12 :
[V:4] z12 | 
[V:5] z12 | 
[V:1] E2G3FEDC4 | 
[V:2] c4z2G2A2c2- | 
[V:3] x12 | 
[V:4] z12 | 
[V:5] z12 | 
[V:1] z2G2A2c3BAG | 
[V:2] cBAGF4z2c2 | 
[V:3] z12 :
[V:4] z12 | 
[V:5] z12 | 
[V:1] B2A4GFE4 | 
[V:2] d2f3ed4^c2 | 
[V:3] x12 | 
[V:4] F,6G,2A,4 | 
[V:5] z12 | 
[V:1] D2D2F2G2A4 | 
[V:2] d2f4edc2c2 | 
[V:3] z12 :
[V:4] D,6E,2F,4 | 
[V:5] z12 | 
[V:1] D4z4z4 | 
[V:2] B2d4cBAGA2 | 
[V:3] x4F8 | 
[V:4] B,,2B,,2D,2E,2F,4 | 
[V:5] B,,4B,,2C,2D,4 | 
[V:1] z2D2D2D2F4 | 
[V:2] G4z2d2d2d2 | 
[V:3] B12- :
[V:4] B,,2D,3E,F,3E,D,C, | 
[V:5] G,,4z2B,,2B,,3A,, | 
[V:1] G4A2A2A2c2- | 
[V:2] e2e2f2f3ec2 | 
[V:3] B4A8 | 
[V:4] B,,3A,,C,2D,2C,4 | 
[V:5] G,,2G,,2F,,8 | 
[V:1] c2B2G2B2BAGF | 
[V:2] d4z2d2B2B2 | 
[V:3] G12- :
[V:4] z2G,2E,2G,2G,F,E,D, | 
[V:5] z4z4G,,4 | 
[V:1] E4z2E4E2 | 
[V:2] c3BG2A3Bc2 | 
[V:3] G4c8 | 
[V:4] C,2E,2E,D,C,B,,A,,4 | 
[V:5] C,4C,2C,4C,2 | 
[V:1] F4E2A3GF2- | 
[V:2] F4G2A3Bc2 | 
[V:3] B4c8 :
[V:4] z12 | 
[V:5] D,4C,2F,,2F,,G,,A,,B,, | 
[V:1] F2E2F4z4 | 
[V:2] c4c8 | 
[V:3] G4A8 | 
[V:4] z12 | 
[V:5] C,4z2F,,2F,,G,,A,,B,, | 
[V:1] z12 | 
[V:2] z4z2G2GABc | 
[V:3] G12- :
[V:4] z2C,3D,E,F,G,2E,2 | 
[V:5] C,2C,2_E,3D,B,,2C,2- | 
[V:1] z4z2C2CDEF | 
[V:2] d2d2e3dc2BA | 
[V:3] G12 | 
[V:4] D,4C,3D,E,2F,2- | 
[V:5] C,2B,,2C,4C,4- | 
[V:1] G4A2c4BA | 
[V:2] G4z2A2ABcd | 
[V:3] z12 :
[V:4] F,2E,2F,4z4 | 
[V:5] C,4z2F,,2F,,G,,A,,B,, | 
[V:1] G2AGA2A2A3G | 
[V:2] e2e2f3edc/B/AB | 
[V:3] x12 | 
[V:4] G,4F,2D,3E,F,G, | 
[V:5] C,2C,2F,,2F,3E,D,2 | 
[V:1] E2DEFE/F/G3FF2 | 
[V:2] c2d2c2d4d2- | 
[V:3] z12 :
[V:4] A,2D,2z2D,2D,E,F,G, | 
[V:5] C,2B,,2A,,2G,,2B,,2D,2 | 
[V:1] E4D4z4 | 
[V:2] d^c^c2d4z4 | 
[V:3] x4F8 | 
[V:4] A,4D,4z4 | 
[V:5] A,,4B,,4z4 | 
[V:1] F4F2F2G4- | 
[V:2] d6d2d4 | 
[V:3] B8B4- :
[V:4] D,4D,2D,2B,,4- | 
[V:5] B,,4B,,2B,,2G,,4- | 
[V:1] G4A2A4GF | 
[V:2] e4f3ec2c2- | 
[V:3] B4A8 | 
[V:4] B,,4C,4F,3E, | 
[V:5] G,,4F,,4F,,4 | 
[V:1] E2G2GFD4B2 | 
[V:2] c2c2B3cdcBA | 
[V:3] G12- :
[V:4] C,2E,3F,G,F,D,4- | 
[V:5] C,3B,,G,,8 | 
[V:1] BAGFE2A2G2F2- | 
[V:2] B3cc4z4 | 
[V:3] G4c8 | 
[V:4] D,4C,2C,D,E,2F,2 | 
[V:5] G,,4A,,4z4 | 
[V:1] F2E2F4z2A2 | 
[V:2] z4z2A2A2A2 | 
[V:3] B4c8 :
[V:4] G,4F,8 | 
[V:5] z4F,,4F,,2F,,2 | 
[V:1] A2c4B2GAB2 | 
[V:2] c4G2B3cd2 | 
[V:3] A4G8 | 
[V:4] z2E,2E,2D,2D,C,2B,, | 
[V:5] A,,3B,,C,2G,,B,,2A,,G,,2 | 
[V:1] A2FGA2G2EFG2- | 
[V:2] z2c3BB2G4- | 
[V:3] A6B2c4 :
[V:4] C,2F,4D,2E,4 | 
[V:5] F,,4F,,2G,,2C,3B,, | 
[V:1] GFD3FE2D4 | 
[V:2] G4z4B4 | 
[V:3] B6c2d4 | 
[V:4] D,4z4D,4 | 
[V:5] G,,4D,2A,,2z2B,,2 | 
[V:1] z2A2A2c3BAG | 
[V:2] G2c3BAGF2c2 | 
[V:3] c8A4 :
[V:4] E,4C,4F,3E, | 
[V:5] C,2A,,4F,,4F,,2 | 
[V:1] F2G4F4E2 | 
[V:2] d8c3B | 
[V:3] B4G8 | 
[V:4] D,C,B,,3C,D,2E,2C,2 | 
[V:5] B,,2G,,3A,,B,,2C,4 | 
[V:1] F12 ||  
[V:2] A12 ||  
[V:3] F12 ||  
[V:4] D,4C,8 ||  
[V:5] F,,12 ||  
[V:1]  [K:F] [K:clef=treble][M:2/1]z8 | 
[V:2]  [K:F] [K:clef=treble-8][M:2/1]z8 | 
[V:3]  [K:F] [K:clef=treble-8][M:2/1]F8- | 
[V:4]  [K:F] [K:clef=bass][M:2/1]C,4C,2D,2- | 
[V:5]  [K:F] [K:clef=bass][M:2/1]F,,4F,,3G,, | 
[V:1] z8 | 
[V:2] z4c4 | 
[V:3] F8- | 
[V:4] D,2C,B,,C,4 | 
[V:5] A,,2B,,4A,,2 | 
[V:1] F4F3G | 
[V:2] d4d2d2- | 
[V:3] F8- | 
[V:4] B,,8 | 
[V:5] B,,8 | 
[V:1] A2B4A2 | 
[V:2] d2cBc4 | 
[V:3] F8 | 
[V:4] z8 | 
[V:5] z8 | 
[V:1] B8 | 
[V:2] B8 | 
[V:3] G8 | 
[V:4] B,,3C,D,2B,,2 | 
[V:5] G,,4B,,3C, | 
[V:1] z2F2F3G | 
[V:2] z2d2c2f2- | 
[V:3] B4A4 | 
[V:4] F,4F,,4 | 
[V:5] D,2B,,2F,4 | 
[V:1] A2B4A2 | 
[V:2] f2edc4 | 
[V:3] c8 | 
[V:4] F,8 | 
[V:5] z4F,,4 | 
[V:1] B4G4- | 
[V:2] B4z4 | 
[V:3] d4c2B2- | 
[V:4] z8 | 
[V:5] B,,4_E,4- | 
[V:1] G4E4 | 
[V:2] z8 | 
[V:3] B4c4 | 
[V:4] z8 | 
[V:5] (3:2:2E,2_E,4C,4 | 
[V:1] F6ED | 
[V:2] d6c2 | 
[V:3] B2A6 | 
[V:4] z8 | 
[V:5] D,3E,F,4 | 
[V:1] E8 | 
[V:2] c3BB2c2- | 
[V:3] G8 | 
[V:4] z2G,2G,2E,2- | 
[V:5] C,4z2C,2- | 
[V:1] z8 | 
[V:2] cde2A4 | 
[V:3] A4c4- | 
[V:4] E,2C,3D,E,2 | 
[V:5] C,2C,4A,,2- | 
[V:1] z4z2G2- | 
[V:2] c4d4 | 
[V:3] c4B4 | 
[V:4] F,2E,2D,4 | 
[V:5] A,,B,,C,B,,G,,4 | 
[V:1] G2G4E2- | 
[V:2] e6dc | 
[V:3] c8 | 
[V:4] C,4z4 | 
[V:5] C,8 | 
[V:1] EFGFD4 | 
[V:2] B2c4=B2 | 
[V:3] G8- | 
[V:4] z8 | 
[V:5] z8 | 
[V:1] E3FG4 | 
[V:2] c4z4 | 
[V:3] G8 | 
[V:4] C,4D,4 | 
[V:5] z2C,4B,,2 | 
[V:1] z8 | 
[V:2] z8 | 
[V:3] A8 | 
[V:4] E,4F,4 | 
[V:5] C,2C,2D,4 | 
[V:1] z6G2- | 
[V:2] z8 | 
[V:3] B8- | 
[V:4] F,2G,4F,E, | 
[V:5] D,C,B,,A,,G,,4 | 
[V:1] G2F2G2G2 | 
[V:2] z2d2d2e2 | 
[V:3] B8 | 
[V:4] D,4G,4 | 
[V:5] z4G,,3G,, | 
[V:1] A4AGFE | 
[V:2] f2d4cB | 
[V:3] F8 | 
[V:4] z8 | 
[V:5] D,4D,2F,2- | 
[V:1] D2F4E2 | 
[V:2] A2B2c4 | 
[V:3] z8 | 
[V:4] z2F,2G,2G,2 | 
[V:5] F,2E,D,C,2C,2 | 
[V:1] FEDCD4 | 
[V:2] F4z2G2 | 
[V:3] z8 | 
[V:4] A,2A,2B,4 | 
[V:5] A,,4G,,4 | 
[V:1] C4z2F2 | 
[V:2] A2c4d2- | 
[V:3] z8 | 
[V:4] A,2G,4F,2- | 
[V:5] C,4A,,2B,,2 | 
[V:1] G2G2A2A2 | 
[V:2] d2cBA2A2 | 
[V:3] z8 | 
[V:4] F,2E,2F,4 | 
[V:5] G,,4F,,4 | 
[V:1] B4A2G2- | 
[V:2] d4c4 | 
[V:3] G8- | 
[V:4] z8 | 
[V:5] z4C,4 | 
[V:1] G2F4E2 | 
[V:2] d4c4 | 
[V:3] G8 | 
[V:4] z8 | 
[V:5] B,,4C,4 | 
[V:1] F2F2E2DC | 
[V:2] z2d2c2BA | 
[V:3] A8 | 
[V:4] z8 | 
[V:5] F,,4z4 | 
[V:1] D4C4 | 
[V:2] B4c4 | 
[V:3] G4c4- | 
[V:4] z4A,4 | 
[V:5] z4z2F,2 | 
[V:1] z8 | 
[V:2] z8 | 
[V:3] c4B4 | 
[V:4] G,2F,E,F,4 | 
[V:5] E,2D,C,D,4 | 
[V:1] z2C2E2E2 | 
[V:2] z2G2c2c2 | 
[V:3] c8 | 
[V:4] G,4E,4 | 
[V:5] C,8 | 
[V:1] D3CD4 | 
[V:2] B3AB4 | 
[V:3] G8- | 
[V:4] z8 | 
[V:5] z8 | 
[V:1] C4z4 | 
[V:2] c8 | 
[V:3] G8 | 
[V:4] z2C,2G,2G,2 | 
[V:5] C,4E,2E,2 | 
[V:1] z8 | 
[V:2] z8 | 
[V:3] A8 | 
[V:4] F,3E,F,4 | 
[V:5] D,3C,D,4 | 
[V:1] z2G2G2G2- | 
[V:2] z8 | 
[V:3] B8- | 
[V:4] G,8 | 
[V:5] G,,8 | 
[V:1] G2FED3E | 
[V:2] z4z2d2 | 
[V:3] B8 | 
[V:4] z8 | 
[V:5] z2G,2G,3F, | 
[V:1] F2EDCB,D2- | 
[V:2] d2cBAGB2 | 
[V:3] F8 | 
[V:4] z8 | 
[V:5] D,2E,2F,3E, | 
[V:1] D2C4=B,2 | 
[V:2] c4d4 | 
[V:3] z8 | 
[V:4] z8 | 
[V:5] C,2E,2D,4 | 
[V:1] C8 | 
[V:2] e8 | 
[V:3] z8 | 
[V:4] z2C,2G,2C,2 | 
[V:5] C,8- | 
[V:1] z4z2C2 | 
[V:2] z2e2e2e2- | 
[V:3] z8 | 
[V:4] G,3C,G,2A,2 | 
[V:5] C,8- | 
[V:1] G2C2G3C | 
[V:2] e2e4dc | 
[V:3] z8 | 
[V:4] G,2A,2E,3F, | 
[V:5] C,8 | 
[V:1] G2A2G2A2- | 
[V:2] e2f2c4 | 
[V:3] z8 | 
[V:4] G,2F,2E,2F,2- | 
[V:5] z2F,,2C,2F,,2 | 
[V:1] A2G2A4 | 
[V:2] c8 | 
[V:3] z8 | 
[V:4] F,2E,2F,4 | 
[V:5] C,4F,,4- | 
[V:1] z2C2G2C2 | 
[V:2] z2f2e3c | 
[V:3] z8 | 
[V:4] z2A,2G,2A,2 | 
[V:5] F,,4z4 | 
[V:1] G2G2A2c2- | 
[V:2] d2e2f4 | 
[V:3] z8 | 
[V:4] G,2G,2F,3E, | 
[V:5] z4z2F,,2 | 
[V:1] cBA2G2A2- | 
[V:2] z2f2e2f2- | 
[V:3] z8 | 
[V:4] C,8 | 
[V:5] C,2F,,2C,2F,,2- | 
[V:1] A2GFE4 | 
[V:2] f2edc4- | 
[V:3] z8 | 
[V:4] z8 | 
[V:5] F,,G,,A,,B,,C,3D, | 
[V:1] z8 | 
[V:2] c2BAB4 | 
[V:3] z8 | 
[V:4] z2F,2G,2G,2 | 
[V:5] E,2F,4E,2 | 
[V:1] z8 | 
[V:2] A4z4 | 
[V:3] z8 | 
[V:4] A,2C4A,2 | 
[V:5] F,4E,2C,2 | 
[V:1] z2F2G2G2 | 
[V:2] z4c4- | 
[V:3] z8 | 
[V:4] B,A,G,F,E,3D, | 
[V:5] D,4C,4 | 
[V:1] A2c4A2 | 
[V:2] c2BAG2c2- | 
[V:3] z8 | 
[V:4] F,4z4 | 
[V:5] F,,2F,2E,2C,2 | 
[V:1] BAGFE3D | 
[V:2] c2B2c4 | 
[V:3] z8 | 
[V:4] z2F,2G,2G,2 | 
[V:5] D,4C,4 | 
[V:1] F4z2F2 | 
[V:2] z2c2d4 | 
[V:3] F4B4- | 
[V:4] A,4G,2D,2 | 
[V:5] F,,4z4 | 
[V:1] G4A2c2- | 
[V:2] e4f4 | 
[V:3] B4A4 | 
[V:4] G,4F,4 | 
[V:5] z4F,,4 | 
[V:1] c2BABAGF | 
[V:2] e8 | 
[V:3] G8 | 
[V:4] G,4E,4 | 
[V:5] C,6C,2 | 
[V:1] E8 | 
[V:2] z8 | 
[V:3] c4B2c2- | 
[V:4] G,4G,2A,2- | 
[V:5] C,4z4 | 
[V:1] z4z2F2 | 
[V:2] z2c2c2c2 | 
[V:3] c2G2A4 | 
[V:4] A,G,E,2F,4- | 
[V:5] z4F,,4 | 
[V:1] G2G2B4 | 
[V:2] d4B3c | 
[V:3] G8 | 
[V:4] F,2E,D,E,4 | 
[V:5] B,,3A,,G,,4 | 
[V:1] A2c4A2 | 
[V:2] d2c4c2 | 
[V:3] z8 | 
[V:4] F,8 | 
[V:5] F,,8 | 
[V:1] BAGFE3D | 
[V:2] dcBAB3A | 
[V:3] z8 | 
[V:4] z2F,2G,2G,2 | 
[V:5] z8 | 
[V:1] F4z4 | 
[V:2] c4z4 | 
[V:3] F4B4- | 
[V:4] A,2F,2G,F,E,D, | 
[V:5] z8 | 
[V:1] z2G2A2c2- | 
[V:2] z8 | 
[V:3] B4A4 | 
[V:4] E,3D,F,4 | 
[V:5] z4F,,4 | 
[V:1] c2B2c3B | 
[V:2] d4c2e2- | 
[V:3] G8 | 
[V:4] z8 | 
[V:5] G,,4C,4- | 
[V:1] G4z2G2 | 
[V:2] e2dcd2e2 | 
[V:3] c4B2c2- | 
[V:4] z8 | 
[V:5] C,2B,,A,,G,,2C,2 | 
[V:1] A2c4B2 | 
[V:2] c4d4 | 
[V:3] c2A2G4 | 
[V:4] z4G,4 | 
[V:5] F,,4z2B,,2 | 
[V:1] c3BGAB2- | 
[V:2] c3defg2- | 
[V:3] A3Bc2B2- | 
[V:4] C,2C,2G,3F, | 
[V:5] A,,2C,3B,,G,,A,, | 
[V:1] BAFGA3G | 
[V:2] gfdef3e | 
[V:3] Bcd2c4 | 
[V:4] D,E,F,3E,C,D, | 
[V:5] B,,3A,,F,,G,,A,,2- | 
[V:1] EFG3DE2 | 
[V:2] c2B4G2 | 
[V:3] A2B2G4 | 
[V:4] E,C,D,4C,2 | 
[V:5] A,,2G,,2B,,2C,2 | 
[V:1] F8- | 
[V:2] A2Bcdefe | 
[V:3] F8- | 
[V:4] F,3E,D,C,B,,2- | 
[V:5] F,,2B,,3C,D,E, | 
[V:1] F8- | 
[V:2] dcc4B2 | 
[V:3] F8- | 
[V:4] B,,2C,2D,4 | 
[V:5] F,2F,,2B,,4 | 
[V:1] F8 |]  
[V:2] c8 |]  
[V:3] F8 |]  
[V:4] C,8 |]  
[V:5] F,,8 |]  



